assets/Cooking/Flat/cooking_flat.svg

<svg width="32" height="32" viewBox="0 0 32 32" fill="none" xmlns="http://www.w3.org/2000/svg">
<path d="M19.2808 22.6344C17.7111 23.6049 15.8609 24.1649 13.8799 24.1649C8.1997 24.1649 3.59497 19.5602 3.59497 13.88C3.59497 8.19976 8.1997 3.59503 13.8799 3.59503C19.5602 3.59503 24.1649 8.19976 24.1649 13.88C24.1649 15.856 23.6076 17.7018 22.6417 19.269L28.6599 23.87C30.3099 25.12 30.4699 27.54 29.0199 28.99C27.5499 30.46 25.1399 30.29 23.8799 28.65L19.2808 22.6344ZM25.4199 25.41C24.8399 25.99 24.8399 26.93 25.4199 27.51C25.9999 28.09 26.9399 28.09 27.5199 27.51C28.0999 26.93 28.0999 25.99 27.5199 25.41C26.9399 24.83 25.9999 24.83 25.4199 25.41Z" fill="#433B6B"/>
<path d="M25.76 13.88C25.76 20.4411 20.4411 25.76 13.88 25.76C7.31885 25.76 2 20.4411 2 13.88C2 7.31886 7.31885 2 13.88 2C20.4411 2 25.76 7.31886 25.76 13.88ZM22.8799 13.88C22.8799 8.90944 18.8504 4.88 13.8799 4.88C8.90932 4.88 4.87988 8.90944 4.87988 13.88C4.87988 18.8506 8.90932 22.88 13.8799 22.88C18.8504 22.88 22.8799 18.8506 22.8799 13.88Z" fill="#635994"/>
<path d="M19.35 11.98C19.07 11.59 18.7 11.31 18.29 11.17C17.84 11.01 17.44 10.72 17.12 10.37C16.98 10.21 16.83 10.06 16.66 9.91999C15.05 8.52999 12.74 8.32999 10.94 9.33999C10.48 9.59999 9.97999 9.76999 9.45999 9.86999H9.45C8.91 9.97999 8.49 10.44 8.42 10.99C8.41 11.12 8.40999 11.24 8.42999 11.36C8.50999 11.85 8.54 12.34 8.45 12.83C8.17 14.39 8.63 16.06 9.84 17.27C11.16 18.58 13.02 19.02 14.69 18.56C15.27 18.4 15.88 18.36 16.48 18.4C16.87 18.42 17.26 18.29 17.56 17.99C17.95 17.6 18.07 17.03 17.9 16.54C17.82 16.3 17.84 16.03 17.94 15.8V15.79C18.04 15.56 18.23 15.39 18.45 15.29C18.8 15.13 19.11 14.87 19.36 14.52C19.88 13.74 19.88 12.72 19.35 11.98Z" fill="white"/>
<path d="M12.5901 16.18C13.9873 16.18 15.1201 15.0473 15.1201 13.65C15.1201 12.2527 13.9873 11.12 12.5901 11.12C11.1928 11.12 10.0601 12.2527 10.0601 13.65C10.0601 15.0473 11.1928 16.18 12.5901 16.18Z" fill="#F9C23C"/>
</svg>

<svg xmlns="http://www.w3.org/2000/svg" width="32" height="32" fill="none"><path fill="#433B6B" d="M19.28 22.634c-1.569.97-3.42 1.53-5.4 1.53-5.68 0-10.285-4.604-10.285-10.284C3.595 8.2 8.2 3.595 13.88 3.595S24.165 8.2 24.165 13.88c0 1.976-.557 3.822-1.523 5.389l6.018 4.601c1.65 1.25 1.81 3.67.36 5.12a3.422 3.422 0 0 1-5.14-.34l-4.6-6.016Zm6.14 2.776a1.485 1.485 0 1 0 2.1 2.1 1.485 1.485 0 0 0-2.1-2.1Z"/><path fill="#635994" d="M25.76 13.88c0 6.561-5.319 11.88-11.88 11.88C7.319 25.76 2 20.441 2 13.88 2 7.319 7.319 2 13.88 2c6.561 0 11.88 5.319 11.88 11.88Zm-2.88 0a9 9 0 1 0-18 0 9 9 0 0 0 18 0Z"/><path fill="#fff" d="M19.35 11.98c-.28-.39-.65-.67-1.06-.81-.45-.16-.85-.45-1.17-.8a3.92 3.92 0 0 0-.46-.45 5.029 5.029 0 0 0-5.72-.58c-.46.26-.96.43-1.48.53h-.01c-.54.11-.96.57-1.03 1.12-.01.13-.01.25.01.37.08.49.11.98.02 1.47a5.011 5.011 0 0 0 6.24 5.73c.58-.16 1.19-.2 1.79-.16.39.02.78-.11 1.08-.41.39-.39.51-.96.34-1.45-.08-.24-.06-.51.04-.74v-.01c.1-.23.29-.4.51-.5.35-.16.66-.42.91-.77.52-.78.52-1.8-.01-2.54Z"/><path fill="#F9C23C" d="M12.59 16.18a2.53 2.53 0 1 0 0-5.06 2.53 2.53 0 0 0 0 5.06Z"/></svg>
